!!!COM: Bach, Johann Sebastian
!!!OPR: Joh. Seb. Bachs vierstimmige Choralges‰nge
!!!XEN: Four-part Chorales
!!!OTL: 148. O Lamm Gottes, unschuldig
!!!SCT: BWV 401
!!!SCA: Thematisch-systematisches Verzeichnis der musikalischen Werke Johann Sebastian Bach: Bach-Werke-Verzeichnis (Schmieder)
!!!YOR: Bach Gesellschaft Edition xxxix
!!!ENC: Steven Rasmussen
!!!CDT: 1685/3//-1750/7/28/
!!!OCY: Deutschland
!!!YEC: Copyright (c) 1994, 2000 Center for Computer Assisted Research in the Humanities
!!!YEM: Rights to all derivative editions reserved
!!!YEN: United States of America
**kern	**silbe	**kern	**silbe	**kern	**silbe	**kern
*I:[SOPRANO]	*I:[SOPRANO]	*I:[ALTO]	*I:[ALTO]	*I:[TENORE]	*I:[TENORE]	*I:[BASSO]
*>[A,A,B]	*	*>[A,A,B]	*	*>[A,A,B]	*	*>[A,A,B]
*>A	*	*>A	*	*>A	*	*>A
*clefG2	*	*clefG2	*	*clefGv2	*	*clefF4
*k[b-]	*	*k[b-]	*	*k[b-]	*	*k[b-]
*F:	*	*F:	*	*F:	*	*F:
*M4/4	*	*M4/4	*	*M4/4	*	*M4/4
4f	Oall-	4c	.	8AL	.	8FFL
.	.	.	.	8B-J	.	8GGJ
=1	=1	=1	=1	=1	=1	=1
4f	Lamm-zeit	16cLL	.	4c	.	4AA
.	.	16dJ	.	.	.	.
.	.	8e-J	.	.	.	.
4f	Got-er-	8e-L	.	8cL	.	4BB-
.	.	8dJ	.	16B-L	.	.
.	.	.	.	16AJJ	.	.
4cc	-tes,-fund'n	8enL	.	4G	.	4BB-
.	.	8cJ	.	.	.	.
4cc	un-ge-	8fL	.	4c	.	8AAL
.	.	8eJ	.	.	.	8GGJ
=2	=2	=2	=2	=2	=2	=2
2dd	-schul--dul-	4a	.	4c	.	4FF
.	.	8gL	.	4Bn	.	4GG
.	.	8fJ	.	.	.	.
4cc;	-dig,-dig,	4e;	.	4G;	.	4C;
4cc	amwie-	4e	.	4A	.	4AA
=3	=3	=3	=3	=3	=3	=3
4f	Stamm-wohl	8eL	.	4A	.	4D
.	.	8dJ	.	.	.	.
4g	desdu	8dL	.	4G	.	4E
.	.	8cJ	.	.	.	.
4a	Kreuz'warst	8cL	.	4F	.	8FL
.	.	16dL	.	.	.	8EJ
.	.	16eJJ	.	.	.	.
4b-	ge-ver-	4f	.	8FL	.	8DL
.	.	.	.	8dJ	.	8BB-J
=4	=4	=4	=4	=4	=4	=4
4a	-schlach--ach-	8fL	.	[4c	.	4C
.	.	16eL	.	.	.	.
.	.	16dJJ	.	.	.	.
8gL	.	4e	.	8.cL]	.	4CC
8fJ	.	.	.	.	.	.
.	.	.	.	16B-Jk	.	.
4f;	-tet,-tet;	4c;	.	4A;	.	4FF;
=:|!	=:|!	=:|!	=:|!	=:|!	=:|!	=:|!
*>B	*	*>B	*	*>B	*	*>B
4a	all'	4f	.	4c	.	4F
=5	=5	=5	=5	=5	=5	=5
4a	S√ºnd'	4f	.	4c	.	8FL
.	.	.	.	.	.	8EJ
4a	hast	4f	.	4d	.	8DL
.	.	.	.	.	.	8CJ
4g	du	4f	.	4d	.	4BBn
4a	ge-	4e	.	4A	.	4C#
=6	=6	=6	=6	=6	=6	=6
8fL	-tra-	8d	.	8AL	.	8DL
8eJ	.	4c	.	8G	.	8E
4d	.	.	.	8A	.	8F
.	.	8Bn	.	16GL	.	8GJ
.	.	.	.	16FJJ	.	.
4c;	-gen,	4G;	.	4E;	.	4C;
4cc	sonst	4e-	.	4F	.	4AA
=7	=7	=7	=7	=7	=7	=7
4dd	m√ºss-	8dL	.	8FL	.	4BB-
.	.	8eJ	.	8GJ	.	.
4cc	-ten	8fL	.	8AL	.	4F
.	.	16gL	.	8B-J	.	.
.	.	16aJJ	.	.	.	.
4cc	wir	4g	.	4c	.	8FL
.	.	.	.	.	.	8EJ
8aL	ver-	4f	.	8cL	.	4F
8b-J	.	.	.	8dJ	.	.
=8	=8	=8	=8	=8	=8	=8
4cc	-za-	4.a	.	4e-	.	8FL
.	.	.	.	.	.	8F#
4b-	.	.	.	4d	.	8G
.	.	8g	.	.	.	8GGJ
4a;	-gen.	(8gL	.	4d;	.	4D;
.	.	8f#;J)	.	.	.	.
4dd	Er-	4g	.	8dL	.	8BB-L
.	.	.	.	8fJ	.	8BBnJ
=9	=9	=9	=9	=9	=9	=9
8ccL	-barm'	4g	.	4e	.	4C
8b-J	.	.	.	.	.	.
4a	dich	4f	.	8eL	.	4D
.	.	.	.	8dJ	.	.
4g	un-	4g	.	8dL	.	4E
.	.	.	.	8cJ	.	.
4a	-ser,	8gL	.	4c	.	4F
.	.	16fL	.	.	.	.
.	.	16eJJ	.	.	.	.
=10	=10	=10	=10	=10	=10	=10
4cc	o	4f	o	8cL	o	8AAL
.	.	.	.	8A	.	16BB-L
.	.	.	.	.	.	16CJ
4a	.	2f	Je-	8F	.	8D
.	.	.	.	8AJ	.	8CJ
2g	Je-	.	.	4d	Je-	4BB-
.	.	4e	.	8cL	.	4C
.	.	.	.	8B-J	.	.
=11	=11	=11	=11	=11	=11	=11
2.f;	-su!	2.c;	-su!	2.A;	-su!	2.FF;
==|!	==|!	==|!	==|!	==|!	==|!	==|!
*-	*-	*-	*-	*-	*-	*-
!!!RWG: Key is interpreted using the Humdrum key tool.
!!!END: 1994/07/27
!!!EMD: Converted from MuseData to Humdrum Dec 19, 2000, by Andreas Kornstaedt using muse2kern.
!!!EED: Craig Stuart Sapp
!!!EEV: 2024/03/31
!!!ONB: Some non-unicode characters
